X: 107
T: la Blanchiffeu
%R: jig
B: Stewart "A Select Collection of Airs, Jigs, Marches and Reels", ca.1784, p.51 #107
F: http://imslp.org/wiki/A_Select_Collection_of_Airs,_Jigs,_Marches_and_Reels_%28Various%29
Z: 2017 John Chambers <jc:trillian.mit.edu>
M: 6/8
L: 1/8
K: D
|:\
f2a gfe | d2d Te2d | f2a gfe | ddd d3 ::\
DED F2A | DED F2A | FGF A2d | FGF A2c |
d2f d2f | ecA A3 | B2d B2d | cAF F3 |\
G2G F2F | EFE d2e | fdd d2A | Bdd d3 :|
